public/img/old-svg/american-express.svg

<svg width="75" height="43" viewBox="0 0 75 43" fill="none" xmlns="http://www.w3.org/2000/svg">
<path fill-rule="evenodd" clip-rule="evenodd" d="M69.3754 4.34931e-07C65.625 7.59571e-07 25.9223 -6.89369e-07 3.75043 4.34931e-07C1.87413 5.30006e-07 0 1.72 0 3.44V37.84C0 41.28 1.87414 43 5.62457 43C26.5427 43 65.625 43 69.3754 43C73.1259 43 75 41.28 75 37.84V5.16C75 1.72 73.1259 4.34931e-07 69.3754 4.34931e-07Z" fill="#F8F8F8"/>
<path fill-rule="evenodd" clip-rule="evenodd" d="M12.6789 18.7747L11.582 16.2157L10.4917 18.7747H12.6789ZM36.8405 17.7557C36.6201 17.8837 36.3606 17.888 36.0489 17.888H34.1016V16.4621H36.075C36.3541 16.4621 36.6446 16.4741 36.8339 16.5779C37.0429 16.6715 37.1718 16.8705 37.1718 17.1454C37.1718 17.426 37.0494 17.6517 36.8405 17.7557C37.0494 17.6517 36.8405 17.7557 36.8405 17.7557ZM50.7289 18.7747L49.6191 16.2157L48.5173 18.7747H50.7289ZM24.8405 21.5447H23.1985L23.192 16.5171L20.8693 21.5447H19.4624L17.1316 16.5127V21.5447H13.8737L13.2567 20.1128H9.92045L9.29859 21.5447H7.55865L10.4281 15.1254H12.8095L15.5336 21.2031V15.1254H18.1501L20.2474 19.4801L22.1735 15.1254H24.8405V21.5447ZM31.3889 21.5447H26.0352V15.1254H31.3889V16.4621H27.6381V17.6192H31.2991V18.9351H27.6381V20.217H31.3889V21.5447ZM38.9362 16.8542C38.9362 17.8777 38.223 18.4065 37.8068 18.5652C38.1577 18.693 38.458 18.9188 38.6 19.1058C38.8269 19.4251 38.8661 19.7103 38.8661 20.2836V21.5447H37.2485L37.2436 20.7351C37.2436 20.3489 37.2812 19.7934 36.9907 19.4846C36.7556 19.2588 36.3982 19.2098 35.822 19.2098H34.1016V21.5447H32.4988V15.1254H36.1843C37.0037 15.1254 37.6076 15.1461 38.125 15.4329C38.6326 15.7196 38.9362 16.1382 38.9362 16.8542C38.9362 16.1382 38.9362 16.8542 38.9362 16.8542ZM41.5004 21.5447H39.8666V15.1254H41.5004V21.5447ZM60.47 21.5447H58.1996L55.162 16.7266V21.5447H51.8976L51.2741 20.1128H47.946L47.3405 21.5447H45.4651C44.6865 21.5447 43.7007 21.3797 43.1424 20.8347C42.5793 20.2896 42.2855 19.5514 42.2855 18.384C42.2855 17.432 42.4602 16.5617 43.149 15.8739C43.668 15.3616 44.4792 15.1254 45.5826 15.1254H47.1348V16.5009H45.6152C45.0309 16.5009 44.7012 16.5841 44.3829 16.8811C44.1103 17.1514 43.9226 17.6624 43.9226 18.3352C43.9226 19.023 44.0646 19.5188 44.3633 19.8427C44.6098 20.0968 45.057 20.1738 45.4798 20.1738H46.1996L48.4585 15.1256H50.8595L53.5723 21.1973V15.1256H56.0124L58.828 19.5963V15.1256H60.47V21.5447ZM7.53906 22.8055H10.2779L10.8949 21.3797H12.2774L12.8927 22.8055H18.2806V21.7154L18.7605 22.8101H21.5581L22.038 21.6992V22.8055H35.427L35.4205 20.465H35.6784C35.8612 20.471 35.9134 20.4871 35.9134 20.7739V22.8055H42.8372V22.2606C43.3954 22.5473 44.2654 22.8055 45.4079 22.8055H48.3214L48.945 21.3797H50.3258L50.9362 22.8055H56.5494V21.4511L57.3998 22.8055H61.8982V13.8525H57.4471V14.9099L56.8236 13.8525H52.2551V14.9099L51.6822 13.8525H45.5124C44.4792 13.8525 43.5717 13.9906 42.8372 14.3753V13.8525H38.5788V14.3753C38.1136 13.9788 37.477 13.8525 36.7703 13.8525H21.2137L20.1691 16.1649L19.0967 13.8525H14.1968V14.9099L13.6582 13.8525H9.47976L7.53906 18.1093V22.8055ZM64.5391 27.5326H61.6174C61.3269 27.5326 61.1326 27.543 60.9694 27.6486C60.7997 27.7526 60.736 27.9068 60.736 28.1104C60.736 28.3526 60.878 28.5174 61.0853 28.5888C61.2551 28.6451 61.4362 28.6615 61.7039 28.6615L62.5723 28.6838C63.4488 28.7044 64.0331 28.8487 64.3905 29.2005C64.4542 29.2495 64.4934 29.3045 64.5391 29.3596V27.5326ZM64.5391 31.7656C64.149 32.3107 63.39 32.5869 62.3633 32.5869H59.2687V31.2102H62.3519C62.6571 31.2102 62.871 31.1716 62.9999 31.0511C63.1109 30.9518 63.1892 30.8077 63.1892 30.6323C63.1892 30.4453 63.1109 30.2968 62.9934 30.2078C62.8775 30.1098 62.7077 30.0654 62.4286 30.0654C60.9237 30.0162 59.0467 30.1098 59.0467 28.0779C59.0467 27.1467 59.6653 26.1664 61.3465 26.1664H64.5374V24.8888H61.5734C60.6773 24.8888 60.0276 25.094 59.5674 25.4132V24.8888H55.18C54.4798 24.8888 53.6555 25.0553 53.2654 25.4132V24.8888H45.4324V25.4132C44.8089 24.9826 43.7578 24.8888 43.2714 24.8888H38.1054V25.4132C37.6125 24.9558 36.5157 24.8888 35.8465 24.8888H30.0635L28.7415 26.2601L27.501 24.8888H18.8633V33.848H27.3394L28.7023 32.4551L29.9868 33.848L35.2115 33.8525V31.745H35.7241C36.4177 31.7552 37.2355 31.7285 37.9569 31.4298V33.8479H42.2659V31.5129H42.4732C42.7393 31.5129 42.7654 31.5233 42.7654 31.7771V33.8476H55.8557C56.6865 33.8476 57.5548 33.6439 58.0364 33.2744V33.8476H62.1887C63.0521 33.8476 63.896 33.7316 64.5391 33.4347V31.7656ZM58.1457 29.2005C58.4591 29.5097 58.6256 29.9001 58.6256 30.561C58.6256 31.9422 57.7246 32.5869 56.1087 32.5869H52.9863V31.2102H56.0956C56.3992 31.2102 56.6147 31.1716 56.7502 31.0511C56.8612 30.9518 56.9395 30.8077 56.9395 30.6323C56.9395 30.4453 56.8546 30.2968 56.7436 30.2078C56.6212 30.1098 56.4531 30.0654 56.174 30.0654C54.674 30.0162 52.7986 30.1098 52.7986 28.0779C52.7986 27.1467 53.409 26.1664 55.0886 26.1664H58.3024V27.5329H55.3628C55.0706 27.5329 54.8813 27.5433 54.7197 27.6489C54.5451 27.7529 54.4798 27.9072 54.4798 28.1109C54.4798 28.3531 54.6283 28.5179 54.8307 28.5891C54.9988 28.6455 55.18 28.6619 55.4542 28.6619L56.316 28.6842C57.186 28.7044 57.7834 28.8486 58.1457 29.2005C57.7834 28.8486 58.1457 29.2005 58.1457 29.2005ZM43.686 28.8041C43.4721 28.9258 43.2077 28.9362 42.896 28.9362H40.9488V27.4942H42.9221C43.2077 27.4942 43.4934 27.4999 43.686 27.6102C43.8949 27.7142 44.0189 27.913 44.0189 28.1877C44.0189 28.4626 43.8949 28.6838 43.686 28.8041C43.8949 28.6838 43.686 28.8041 43.686 28.8041ZM44.6539 29.6032C45.0113 29.7291 45.3018 29.9551 45.4389 30.1422C45.6658 30.4556 45.6985 30.7481 45.705 31.3142V32.5869H44.0956V31.7837C44.0956 31.3973 44.1348 30.8254 43.8378 30.5269C43.6027 30.2968 43.2453 30.2418 42.6609 30.2418H40.9488V32.5869H39.3394V26.1662H43.038C43.8492 26.1662 44.4401 26.2004 44.9656 26.4692C45.4716 26.7618 45.7899 27.1626 45.7899 27.895C45.7899 28.9198 45.0766 29.4427 44.6539 29.6032C45.0766 29.4427 44.6539 29.6032 44.6539 29.6032ZM46.6794 26.1662H52.0266V27.494H48.2741V28.6614H51.9352V29.9713H48.2741V31.2489L52.0266 31.2546V32.5869H46.6794V26.1662ZM35.8677 29.1293H33.7964V27.4942H35.8856C36.4634 27.4942 36.8666 27.7199 36.8666 28.2814C36.8666 28.8367 36.483 29.1293 35.8677 29.1293ZM32.2001 32.003L29.7404 29.3875L32.2001 26.8552V32.003ZM25.8459 31.2489H21.9074V29.9713H25.4248V28.6614H21.9074V27.494H25.9243L27.6773 29.3652L25.8459 31.2489ZM38.5869 28.2814C38.5869 30.065 37.1963 30.4333 35.7959 30.4333H33.7964V32.5869H30.6822L28.7088 30.4615L26.6571 32.5869H20.3111V26.1662H26.7551L28.7268 28.2709L30.7654 26.1662H35.8856C37.1571 26.1662 38.5869 26.5033 38.5869 28.2814C38.5869 26.5033 38.5869 28.2814 38.5869 28.2814Z" fill="#357DE9"/>
</svg>

<svg width="75" height="43" viewBox="0 0 75 43" fill="none" xmlns="http://www.w3.org/2000/svg"><path fill-rule="evenodd" clip-rule="evenodd" d="M69.375 0H3.75C1.874 0 0 1.72 0 3.44v34.4C0 41.28 1.874 43 5.625 43h63.75C73.125 43 75 41.28 75 37.84V5.16C75 1.72 73.126 0 69.375 0z" fill="#F8F8F8"/><path fill-rule="evenodd" clip-rule="evenodd" d="M12.679 18.775l-1.097-2.56-1.09 2.56h2.187zm24.162-1.02c-.22.129-.48.133-.792.133h-1.947v-1.426h1.973c.28 0 .57.012.759.116.209.094.338.293.338.567 0 .281-.123.507-.331.61.208-.103 0 0 0 0zm13.888 1.02l-1.11-2.56-1.102 2.56h2.212zm-25.889 2.77h-1.642l-.006-5.028-2.323 5.028h-1.407l-2.33-5.032v5.032h-3.258l-.617-1.432H9.92l-.62 1.432H7.56l2.87-6.42h2.38l2.725 6.078v-6.078h2.616l2.097 4.355 1.927-4.355h2.666v6.42zm6.549 0h-5.354v-6.42h5.354v1.337h-3.75v1.157h3.66v1.316h-3.66v1.282h3.75v1.328zm7.547-4.69a1.81 1.81 0 01-1.13 1.71c.352.128.652.354.794.54.227.32.266.605.266 1.179v1.26H37.25l-.005-.809c0-.386.037-.942-.253-1.25-.235-.226-.593-.275-1.169-.275h-1.72v2.335H32.5v-6.42h3.685c.82 0 1.424.021 1.941.308.508.287.811.705.811 1.421 0-.716 0 0 0 0zm2.564 4.69h-1.633v-6.42H41.5v6.42zm18.97 0H58.2l-3.038-4.818v4.818h-3.264l-.624-1.432h-3.328l-.605 1.432h-1.876c-.779 0-1.764-.165-2.323-.71-.563-.545-.857-1.284-.857-2.451 0-.952.175-1.822.864-2.51.519-.512 1.33-.749 2.434-.749h1.552v1.376h-1.52c-.584 0-.914.083-1.232.38-.273.27-.46.781-.46 1.454 0 .688.142 1.184.44 1.508.247.254.694.33 1.117.33h.72l2.258-5.047h2.401l2.713 6.071v-6.071h2.44l2.816 4.47v-4.47h1.642v6.419zm-52.93 1.26h2.738l.617-1.425h1.382l.616 1.425h5.388v-1.09l.48 1.095h2.797l.48-1.11v1.105h13.389l-.007-2.34h.258c.183.006.235.022.235.309v2.031h6.924v-.544c.558.286 1.428.544 2.57.544h2.914l.624-1.425h1.38l.611 1.425h5.613v-1.354l.85 1.354h4.5v-8.953h-4.452v1.058l-.623-1.058h-4.569v1.058l-.573-1.058h-6.17c-1.033 0-1.94.139-2.675.523v-.523H38.58v.523c-.465-.396-1.102-.523-1.809-.523H21.214l-1.045 2.313-1.072-2.313h-4.9v1.058l-.539-1.058H9.48L7.54 18.11v4.696zm57 4.728h-2.923c-.29 0-.484.01-.648.116-.17.104-.233.258-.233.461 0 .243.142.407.35.479.17.056.35.073.618.073l.868.022c.877.02 1.461.165 1.819.517.063.049.102.104.148.159v-1.827zm0 4.233c-.391.545-1.15.82-2.177.82H59.27V31.21h3.083c.305 0 .519-.038.648-.159a.56.56 0 00.19-.419.519.519 0 00-.197-.424c-.116-.098-.285-.143-.564-.143-1.505-.049-3.382.045-3.382-1.987 0-.931.618-1.912 2.3-1.912h3.19V24.89h-2.964c-.896 0-1.545.205-2.006.524v-.524H55.18c-.7 0-1.524.166-1.915.524v-.524h-7.833v.524c-.623-.43-1.674-.524-2.16-.524h-5.167v.524c-.492-.457-1.59-.524-2.258-.524h-5.784l-1.322 1.371-1.24-1.371h-8.638v8.959h8.476l1.363-1.393 1.285 1.393 5.225.005v-2.108h.512c.694.01 1.512-.017 2.233-.315v2.418h4.309v-2.335h.207c.266 0 .292.01.292.264v2.07h13.09c.832 0 1.7-.203 2.181-.573v.574h4.153c.863 0 1.707-.116 2.35-.413v-1.67zM58.145 29.2c.313.309.48.7.48 1.36 0 1.381-.901 2.026-2.517 2.026h-3.123V31.21h3.11c.303 0 .519-.038.654-.159.111-.1.19-.243.19-.419a.538.538 0 00-.196-.424c-.123-.098-.29-.143-.57-.143-1.5-.049-3.375.045-3.375-1.987 0-.931.61-1.912 2.29-1.912h3.213v1.367h-2.94c-.291 0-.48.01-.642.116-.175.104-.24.258-.24.462 0 .242.148.407.35.478.169.056.35.073.624.073l.862.022c.87.02 1.467.165 1.83.517-.363-.352 0 0 0 0zm-14.46-.397c-.214.122-.478.132-.79.132h-1.947v-1.442h1.973c.286 0 .571.006.764.116.209.104.333.303.333.578 0 .275-.124.496-.333.616.209-.12 0 0 0 0zm.968.8c.357.125.648.351.785.538.227.314.26.606.266 1.172v1.273h-1.61v-.803c0-.387.04-.959-.257-1.257-.235-.23-.593-.285-1.177-.285h-1.712v2.345h-1.61v-6.42h3.699c.811 0 1.402.033 1.928.302.506.293.824.694.824 1.426a1.8 1.8 0 01-1.136 1.708c.423-.16 0 0 0 0zm2.025-3.438h5.348v1.328h-3.753v1.167h3.661v1.31h-3.66v1.278l3.752.006v1.332h-5.348v-6.42zm-10.81 2.965h-2.072v-1.635h2.09c.577 0 .98.226.98.787 0 .556-.383.848-.998.848zM32.2 32.003l-2.46-2.616 2.46-2.532v5.148zm-6.354-.754h-3.939V29.97h3.518v-1.31h-3.518v-1.167h4.017l1.753 1.871-1.831 1.884zm12.74-2.968c0 1.784-1.39 2.152-2.79 2.152h-2v2.154h-3.114L28.71 30.46l-2.052 2.126h-6.346v-6.42h6.444l1.972 2.104 2.038-2.105h5.12c1.272 0 2.702.337 2.702 2.115 0-1.778 0 0 0 0z" fill="#357DE9"/></svg>
